X: 34507
T: Rights Of Man, The
R: hornpipe
M: 4/4
K: Eminor
GA|(3BcB (3ABA (3GAG (3FGF|EF.GA B2ef|(3gag (3fgf (3efe .dB|c>e.dB (3ABA G>A|
(3BcB (3ABA (3GAG (3FGF|EF.GA B2ef|gfed Bgfg|.eE (3FED E2:|
ga|ba.bg efga|ba.bg e3 (3b/g/e/|.d2 dA defg|af.df (3aba g>f|
eBef gf.ga|bgef gf.ef|gf.ed Bgfg|1 .eE (3FED E2:|2 "last time only" .eE (3FED (3EGB e2||

